X: 3
T: Bert Ferguson
C: Samuel Ian Rothmar Burns (1980)
R: jig
M: 6/8
K: A
AB \
| "A"cBc "(E)"EAB | "A"cBc e2E | "Bm"F2A BAB | "Bm7"cec "E7"BAB |\
| "A"cBc "(E)"EAB | "A"cBc e2E | "D"FAA "Bm"BAF | "E7"EAA "A"A :|
|: ce \
| "F#m"faf fec | "E"efg "A"a2e | "F#m"f2f "C#m"fec | "Bm"fBB "E7"Bce |\
| "F#m"faf fec | "A"edc "A7/C#"cBA | "D"FAA "Bm"BAF |"E7"EAA "A"A :|

